ion/stats-chart.svg

<svg viewBox="0 0 512 512" xmlns="http://www.w3.org/2000/svg"><g><path d="M104 496H72v0c-13.26 0-24-10.75-24-24V328v0c0-13.26 10.74-24 24-24h32v0c13.25 0 24 10.74 24 24v144 0c0 13.25-10.75 24-24 24Z"/><path d="M328 496h-32v0c-13.26 0-24-10.75-24-24V232v0c0-13.26 10.74-24 24-24h32v0c13.25 0 24 10.74 24 24v240 0c0 13.25-10.75 24-24 24Z"/><path d="M440 496h-32v0c-13.26 0-24-10.75-24-24V120v0c0-13.26 10.74-24 24-24h32v0c13.25 0 24 10.74 24 24v352 0c0 13.25-10.75 24-24 24Z"/><path d="M216 496h-32v0c-13.26 0-24-10.75-24-24V40v0c0-13.26 10.74-24 24-24h32v0c13.25 0 24 10.74 24 24v432 0c0 13.25-10.75 24-24 24Z"/></g></svg>

<svg xmlns="http://www.w3.org/2000/svg" width="512" height="512" viewBox="0 0 512 512"><path d="M104,496H72a24,24,0,0,1-24-24V328a24,24,0,0,1,24-24h32a24,24,0,0,1,24,24V472A24,24,0,0,1,104,496Z"/><path d="M328,496H296a24,24,0,0,1-24-24V232a24,24,0,0,1,24-24h32a24,24,0,0,1,24,24V472A24,24,0,0,1,328,496Z"/><path d="M440,496H408a24,24,0,0,1-24-24V120a24,24,0,0,1,24-24h32a24,24,0,0,1,24,24V472A24,24,0,0,1,440,496Z"/><path d="M216,496H184a24,24,0,0,1-24-24V40a24,24,0,0,1,24-24h32a24,24,0,0,1,24,24V472A24,24,0,0,1,216,496Z"/></svg>
